svg/hdmi_port.svg

<svg xmlns="http://www.w3.org/2000/svg" viewBox="0 0 24 24"><path d="M21 7H3c-1.1 0-2 .9-2 2v5c0 1.1.9 2 2 2h1l1.4 1.4c.4.4.9.6 1.4.6h10.3c.5 0 1-.2 1.4-.6L20 16h1c1.1 0 2-.9 2-2V9c0-1.1-.9-2-2-2M3 14V9h18v5h-1.8l-2 2H6.8l-2-2zm16-3H5v2h14z"/></svg>

<svg xmlns="http://www.w3.org/2000/svg" id="mdi-hdmi-port" viewBox="0 0 24 24"><path d="M21 7H3C1.9 7 1 7.9 1 9V14C1 15.1 1.9 16 3 16H4L5.4 17.4C5.8 17.8 6.3 18 6.8 18H17.1C17.6 18 18.1 17.8 18.5 17.4L20 16H21C22.1 16 23 15.1 23 14V9C23 7.9 22.1 7 21 7M3 14V9H21V14H19.2L17.2 16H6.8L4.8 14H3M19 11H5V13H19V11Z" /></svg>
